X: 10090
T: RICK WATSON'S HORNPIPE
C: Bob McQuillen 18 Apr 93
B: Bob's Note Book 10 #90
%R: hornpipe, reel
Z: 2020 John Chambers <jc:trillian.mit.edu>
M: C
L: 1/8
K: D
BA \
| Adfd edBA | defd A2fd | edcd efgf | edcB A2fe |\
| dfaf gbag | fdfa gfed | cedB Aceg | f2d2 d2  :|
|: FA \
| dBAG FAdB | AFEF D2FE | DFAd BAFD | CDEF E2DE |\
| FDFA GEGB | Adfd edcd | gfed ceag | f2d2 d2  :|
%%begintext align
%% Tom Daly is the owner of the
%% Fishtraks Recording Studio over in Portsmouth. That's where
%% Sarah Bauhan made her albums, and Rick Watson was the
%% engineer. He and Sarah also remixed New England Tradition's
%% "Farewell to the Hollow," and I am just so pleased with what he
%% did that I thought he had a right to this hornpipe. Perhaps
%% you'll play it on your synthesizer, Rick!
%%endtext

%%sep 1 1 500

%%sep 1 1 500

